!!!OTL: 好心分手
!!!OTA: C0201
!!!RRD: 2002
!!!MGN: 盧巧音
!!!COM: 雷頌德
!!!LYR: 黃偉文
!!!LAR: 雷頌德
!!!LAR2: Ted Lo
!!!RNP: 雷頌德
**kern	**text	**IPA
*clefG2	*	*
*k[b-e-a-d-g-c-]	*	*
*G-:	*	*
*M4/4	*	*
*MM116	*	*
=1	=1	=1
*>verse	*>verse	*>verse
{8B-L	是	si6
8d-J	否	fau2
8d-L	很	han2
8d-J	驚	ging1
4d-}	訝	ngaa5
{8d-L	講	gong2
8d-J	不	bat1
=2	=2	=2
(8d-L	出	ceot1
8c-J)P	.	.
8c-L	說	syut3
[8B-J	話	waa6
4B-]}	.	.
4r	.	.
=3	=3	=3
{8B-L	沒	mut6
8d-J	錯	co3
8d-L	我	ngo3
8B-J	是	si6
4d-}	說	syut3
{8g-L	你	nei5
8a-J	想	soeng2
=4	=4	=4
(8f-L	分	fan1
8e-J)P	.	.
8e-L	手	sau2
[8d-J	嗎	maa3
4d-]}	.	.
8r	.	.
{8B-	曾	cang4
=5	=5	=5
8e-L	給	kap1
8dJ	你	nei5
8e-L	馴	seon4
8fJ	服	fuk6
4g-}	到	dou3
{8B-L	就	zau6
(8B-J	像	zoeng6
=6	=6	=6
4A-)P	.	.
8A-L	綿	min4
[8A-J	羊	joeng4
4A-]}	.	.
8r	.	.
{8G-	何	ho4
=7	=7	=7
8e-L	解	gaai2
8d-J	會	wui5
8e-L	反	faan2
8d-J	咬	ngaau5
8e-	你	nei5
4f	一	jat1
[8d-	下	haa5
=8	=8	=8
8d-]}	.	.
8r	.	.
{8d-L	你	nei5
(8e-J	知	zi1
8d-L)P	.	.
[8d-J	嗎	maa3
4d-]}	.	.
=9	=9	=9
4r	.	.
*>prechorus	*>prechorus	*>prechorus
{8G-L	回	wui4
8A-J	頭	tau4
4B-}	望	mong6
{8B-L	伴	bun6
8c-J	你	nei5
=10	=10	=10
4d-}	走	zau2
{8B-L	從	cung4
8d-J	來	loi4
8fL	未	mei6
8e-J	曾	cang4
8fL	幸	hang6
8a-J	福	fuk1
=11	=11	=11
4g-}	過	gwo3
{8e-L	赴	fu6
8fJ	過	gwo3
4g-}	湯	tong1
{8B-L	蹈	dou6
8c-J	過	gwo3
=12	=12	=12
4d-}	火	fo2
{8d-L	沿	jyun4
8e-J	途	tou4
8fL	爲	wai6
8e-J	何	ho4
8fL	沒	mut6
8g-J	愛	oi3
=13	=13	=13
4e-}	河	ho4
{8c-L	下	haa6
8d-J	半	bun3
4e-}	生	sang1
{8e-L	陪	pui4
8fJ	住	zyu6
=14	=14	=14
4g-}	你	nei5
{8d-L	懷	waai4
8d-J	疑	ji4
8g-L	快	faai3
8fJ	樂	lok6
8g-L	也	jaa5
8b-J	不	bat1
=15	=15	=15
4a-}	多	do1
{8fL	沒	mut6
8g-J	有	jau5
(8a-L	心	sam1
8d-J)}P	.	.
{8d-L	別	bit6
8e-J	再	zoi3
=16	=16	=16
4f}	拖	to1
*>chorus	*>chorus	*>chorus
{8cc-L	好	hou2
8cc-J	心	sam1
8cc-L	一	jat1
8b-J	早	zou2
8a-L	放	fong3
8b-J	開	hoi1
=17	=17	=17
4g-}	我	ngo5
{8d-L	從	cung4
8d-J	頭	tau4
8g-L	努	nou5
8fJ	力	lik6
8g-L	也	jaa5
8b-J	坎	ham1
=18	=18	=18
4a-}	坷	ho1
8r	.	.
{8cc-	統	tung2
8cc-L	統	tung2
8b-J	不	bat1
8a-L	要	jiu3
8b-J	好	hou2
=19	=19	=19
4g-}	過	gwo3
{8B-L	來	loi4
8B-J	年	nin4
8e-L	歲	seoi3
8dJ	月	jyut6
8e-L	那	naa5
8g-J	麼	mo1
=20	=20	=20
4f}	多	do1
8r	.	.
{8f	爲	wai6
8g-L	繼	gai3
8fJ	續	zuk6
8d-L	而	ji4
8fJ	繼	gai3
=21	=21	=21
4e-}	續	zuk6
{8c-L	沒	mut6
8d-J	有	jau5
8e-L	好	hou2
8d-J	處	cyu3
8e-L	還	waan4
8fJ	是	si6
=22	=22	=22
4g-}	我	ngo5
8r	.	.
{8f	若	joek6
8g-L	注	zyu3
8fJ	定	ding6
8g-L	有	jau5
8b-J	一	jat1
=23	=23	=23
(8b-L	點	dim2
8a-J)P	.	.
8a-L	苦	fu2
[8a-J	楚	co2
4a-]}	.	.
8r	.	.
{8a-	不	bat1
=24	=24	=24
4e	如	jyu4
4f	自	zi6
4b-	己	gei2
4a-	親	can1
=25	=25	=25
(8a-L	手	sau2
8g-J)P	.	.
8g-L	割	got3
[8g-J	破	po3
2g-]}	.	.
=26	=26	=26
*>interlude	*>interlude	*>interlude
1r	.	.
=27	=27	=27
*M3/4	*	*
2.r	.	.
=28	=28	=28
*M4/4	*	*
1r	.	.
=29	=29	=29
*>verse	*>verse	*>verse
{8B-L	是	si6
8d-J	否	fau2
8d-L	不	bat1
8d-J	甘	gam1
4d-}	心	sam1
{8d-L	首	sau2
8d-J	先	sin1
=30	=30	=30
(8d-L	給	kap1
8c-J)P	.	.
8c-L	撇	pit3
[8B-J	下	haa6
4B-]}	.	.
4r	.	.
=31	=31	=31
{8B-L	換	wun6
8d-J	了	liu5
8d-L	你	nei5
8B-J	是	si6
4d-}	我	ngo5
{8g-L	你	nei5
8a-J	忍	jan2
=32	=32	=32
(8f-L	得	dak1
8e-J)P	.	.
8e-L	到	dou2
[8d-J	嗎	maa3
4d-]}	.	.
8r	.	.
{8B-	捱	ngaai4
=33	=33	=33
8e-L	得	dak1
8d-J	過	gwo3
8e-L	無	mou4
8fJ	限	haan6
4g-}	次	ci3
{8B-L	寂	zik6
(8B-J	寞	mok6
=34	=34	=34
4A-)P	.	.
8A-L	凌	ling4
[8A-J	遲	ci4
4A-]}	.	.
8r	.	.
{8G-	人	jan4
=35	=35	=35
8e-L	生	sang1
8d-J	太	taai3
8e-L	早	zou2
8d-J	已	ji5
8e-	看	hon3
4f	得	dak1
[8d-	化	faa3
=36	=36	=36
8d-]}	.	.
8r	.	.
{8d-L	也	jaa5
(8e-J	可	ho2
8d-L)P	.	.
[8d-J	怕	paa3
4d-]}	.	.
=37	=37	=37
4r	.	.
*>prechorus	*>prechorus	*>prechorus
{8G-L	回	wui4
8A-J	頭	tau4
4B-}	望	mong6
{8B-L	伴	bun6
8c-J	你	nei5
=38	=38	=38
4d-}	走	zau2
{8B-L	從	cung4
8d-J	來	loi4
8fL	未	mei6
8e-J	曾	cang4
8fL	幸	hang6
8a-J	福	fuk1
=39	=39	=39
4g-}	過	gwo3
{8e-L	赴	fu6
8fJ	過	gwo3
4g-}	湯	tong1
{8B-L	蹈	dou6
8c-J	過	gwo3
=40	=40	=40
4d-}	火	fo2
{8d-L	沿	jyun4
8e-J	途	tou4
8fL	爲	wai6
8e-J	何	ho4
8fL	沒	mut6
8g-J	愛	oi3
=41	=41	=41
4e-}	河	ho4
{8c-L	下	haa6
8d-J	半	bun3
4e-}	生	sang1
{8e-L	陪	pui4
8fJ	住	zyu6
=42	=42	=42
4g-}	你	nei5
{8d-L	懷	waai4
8d-J	疑	ji4
8g-L	快	faai3
8fJ	樂	lok6
8g-L	也	jaa5
8b-J	不	bat1
=43	=43	=43
4a-}	多	do1
{8fL	沒	mut6
8g-J	有	jau5
(8a-L	心	sam1
8d-J)}P	.	.
{8d-L	別	bit6
8e-J	再	zoi3
=44	=44	=44
4f}	拖	to1
*>chorus	*>chorus	*>chorus
{8cc-L	好	hou2
8cc-J	心	sam1
8cc-L	一	jat1
8b-J	早	zou2
8a-L	放	fong3
8b-J	開	hoi1
=45	=45	=45
4g-}	我	ngo5
{8d-L	從	cung4
8d-J	頭	tau4
8g-L	努	nou5
8fJ	力	lik6
8g-L	也	jaa5
8b-J	坎	ham1
=46	=46	=46
4a-}	坷	ho1
8r	.	.
{8cc-	統	tung2
8cc-L	統	tung2
8b-J	不	bat1
8a-L	要	jiu3
8b-J	好	hou2
=47	=47	=47
4g-}	過	gwo3
{8B-L	來	loi4
8B-J	年	nin4
8e-L	歲	seoi3
8dJ	月	jyut6
8e-L	那	naa5
8g-J	麼	mo1
=48	=48	=48
4f}	多	do1
8r	.	.
{8f	爲	wai6
8g-L	繼	gai3
8fJ	續	zuk6
8d-L	而	ji4
8fJ	繼	gai3
=49	=49	=49
4e-}	續	zuk6
{8c-L	直	zik6
8d-J	接	zip3
8e-L	不	bat1
8d-J	過	gwo3
8e-L	承	sing4
8fJ	認	jing6
=50	=50	=50
4g-}	錯	ngo5
8r	.	.
{8f	若	joek6
8g-L	勉	min5
8g-J	強	koeng5
8a-L	也	jaa5
8b-J	分	fan1
=51	=51	=51
(8b-L	到	dou2
8a-J)P	.	.
8a-L	不	bat1
[8a-J	多	do1
4a-]}	.	.
8r	.	.
{8a-	不	bat1
=52	=52	=52
4e	如	jyu4
4f	甚	sam6
(8b-L	麼	mo1
8a-J)P	.	.
8a-L	也	jaa5
(8b-J	摔	seot1
=53	=53	=53
8g-)P	.	.
[4.g-	破	po3
2g-]}	.	.
=54	=54	=54
*>interlude	*>interlude	*>interlude
2r	.	.
4r	.	.
{8e-L	la	.
8fJ	la	.
=55	=55	=55
16g-L	la	.
16a-	la	.
16g-	la	.
16fJ	la	.
4g-}	la	.
{16fL	la	.
16g-	la	.
16f	la	.
16e-J	la	.
4f}	la	.
=56	=56	=56
{16e-L	la	.
16f	la	.
16e-	la	.
16B-J	la	.
[4d-	la	.
2d-]}	.	.
=57	=57	=57
1r	.	.
=58	=58	=58
1r	.	.
=59	=59	=59
4r	.	.
*>chorus	*>chorus	*>chorus
{8d-L	難	naan4
8e-J	行	haang4
8fL	就	zau6
8e-J	無	mou4
8fL	謂	wai6
8g-J	再	zoi3
=60	=60	=60
4a-}	拖	to1
{8cc-L	好	hou2
8cc-J	心	sam1
8cc-L	一	jat1
8b-J	早	zou2
8a-L	放	fong3
8b-J	開	hoi1
=61	=61	=61
(8g-L	我	ngo5
8d-J)}P	.	.
{8d-L	從	cung4
8d-J	頭	tau4
8g-L	努	nou5
8fJ	力	lik6
8g-L	也	jaa5
8b-J	坎	ham1
=62	=62	=62
4a-}	坷	ho1
8r	.	.
{8cc-	統	tung2
8cc-L	統	tung2
8b-J	不	bat1
8a-L	要	jiu3
8b-J	好	hou2
=63	=63	=63
4g-}	過	gwo3
{8B-L	來	loi4
8B-J	年	nin4
8e-L	歲	seoi3
8dJ	月	jyut6
8e-L	那	naa5
8g-J	麼	mo1
=64	=64	=64
4f}	多	do1
8r	.	.
{8f	爲	wai6
8g-L	繼	gai3
8fJ	續	zuk6
8d-L	而	ji4
8fJ	繼	gai3
=65	=65	=65
4e-}	續	zuk6
{8c-L	沒	mut6
8d-J	有	jau5
8e-L	好	hou2
8d-J	處	cyu3
8e-L	還	waan4
8fJ	是	si6
=66	=66	=66
4g-}	我	ngo5
8r	.	.
{8f	若	joek6
8g-L	注	zyu3
8fJ	定	ding6
8g-L	有	jau5
8b-J	一	jat1
=67	=67	=67
(8b-L	點	dim2
8a-J)P	.	.
8a-L	苦	fu2
[8a-J	楚	co2
4a-]}	.	.
8r	.	.
{8a-	不	bat1
=68	=68	=68
4e	如	jyu4
4f	自	zi6
4b-	己	gei2
4a-	親	can1
=69	=69	=69
(8a-L	手	sau2
8g-J)P	.	.
8g-L	割	got3
[8g-J	破	po3
2g-]}	.	.
==	==	==
*-	*-	*-
